assets/symbols/mulberry/mirror_2.svg

<svg height="850.394" viewBox="0 0 850.394 850.394" width="850.394" xmlns="http://www.w3.org/2000/svg"><path d="m663.74 109.88v628.17h-475.12v-628.17zm-26.69 597.12v-566.07h-421.75v566.07z" fill="#abd153"/><path d="m694.36 76.1v695.73h-536.36v-695.73zm-30.62 661.95v-628.17h-475.12v628.17z" fill="#abd153"/><path d="m215.3 140.93h421.75v566.07h-421.75z" fill="#c8c8c8"/><g fill="none"><g stroke="#231f20"><path d="m158 76.1h536.36v695.73h-536.36z" stroke-width="21"/><path d="m188.62 109.88h475.12v628.17h-475.12z" stroke-width="21.407"/><path d="m215.3 140.93h421.75v566.07h-421.75z" stroke-width="14"/></g><path d="m0 0h850.394v850.394h-850.394z"/></g></svg>

<svg xmlns="http://www.w3.org/2000/svg" width="850.394" height="850.394" viewBox="0 0 850.394 850.394" overflow="visible"><path d="M663.74 109.88v628.17H188.62V109.88h475.12zM637.05 707V140.93H215.3V707h421.75z" fill="#abd153"/><path d="M694.36 76.1v695.73H158V76.1h536.36zm-30.62 661.95V109.88H188.62v628.17h475.12z" fill="#abd153"/><path fill="#c8c8c8" d="M215.3 140.93h421.75V707H215.3z"/><g fill="none" stroke="#231f20"><path stroke-width="21" d="M158 76.1h536.36v695.73H158z"/><path stroke-width="21.407" d="M188.62 109.88h475.12v628.17H188.62z"/><path stroke-width="14" d="M215.3 140.93h421.75V707H215.3z"/></g><path fill="none" d="M0 0h850.394v850.394H0z"/></svg>
